X:0412321
T:[ID 4-23v]
T:Bezeichnung standardisiert: Menuett
T:Menuet
C:Urheber unbekannt
C:Datum in der hier transkribierten schriftlichen Quelle: 1767
O:Deutschland; Westfalen; Dinker
S:"Tanzsammlung Dahlhoff" Staatsbibliothek zu Berlin, Musiksammlung, Mus. ms. 40182, Buch 04, 23v/1, PDF Nr: 466
S:Scan online: http://resolver.staatsbibliothek-berlin.de/SBB0000969000000466
F:http://simonwascher.info/TradArchiv/Dahlhoff/ file-version 2017-11-21
L:1/8
M:3/4
K:D
dAfdaf | d'2D2D2 | dAfdaf | d'2D2D2 | ad'FaGb | EgFaDf | eAfAgA | ee'c'e'ac' | eaceAc | eAfAgf | ecAEAc | e6 ::
eAfAgf | e2A2A2 | eAfAgf | e6 | aF Adfa | bG Begb | c'A cfac' | d'Bd'Gd'B | e'ce'Ae'c | f'df'Bf'd | e'ce'Ae'c | (3bc'd' (3gab (3efg | (3cde (3ABc (3def | (3gfe (3fed (3edc | Hd6 :|

